src/icons/svg/logout.svg

<?xml version="1.0" encoding="UTF-8"?>
<svg width="40px" height="40px" viewBox="0 0 40 40" version="1.1" xmlns="http://www.w3.org/2000/svg"
>
    <path d="M0,2 C0,0.8954305 0.8954305,0 2,0 L19.992,0 C21.0965695,0 21.992,0.8954305 21.992,2 C21.992,3.1045695 21.0965695,4 19.992,4 L4,4 L4,36 L20,36 C21.1045695,36 22,36.8954305 22,38 C22,39.1045695 21.1045695,40 20,40 L2,40 C0.8954305,40 0,39.1045695 0,38 L0,2 Z"
          id="路径" fill="#646A73"></path>
    <path d="M0,2 C0,0.8954305 0.8954305,0 2,0 L19.992,0 C21.0965695,0 21.992,0.8954305 21.992,2 C21.992,3.1045695 21.0965695,4 19.992,4 L4,4 L4,36 L20,36 C21.1045695,36 22,36.8954305 22,38 C22,39.1045695 21.1045695,40 20,40 L2,40 C0.8954305,40 0,39.1045695 0,38 L0,2 Z"
          id="路径" fill-opacity="0.2" fill="#000000"></path>
    <path d="M27.586,9.586 C28.3669997,8.80523612 29.6330003,8.80523612 30.414,9.586 L39.414,18.586 C40.1947639,19.3669997 40.1947639,20.6330003 39.414,21.414 L30.414,30.414 C29.6292422,31.1719444 28.3818304,31.1611047 27.6103628,30.3896372 C26.8388953,29.6181696 26.8280556,28.3707578 27.586,27.586 L35.172,20 L27.586,12.414 C26.8052361,11.6330003 26.8052361,10.3669997 27.586,9.586 Z"
          id="路径" fill="#646A73"></path>
    <path d="M27.586,9.586 C28.3669997,8.80523612 29.6330003,8.80523612 30.414,9.586 L39.414,18.586 C40.1947639,19.3669997 40.1947639,20.6330003 39.414,21.414 L30.414,30.414 C29.6292422,31.1719444 28.3818304,31.1611047 27.6103628,30.3896372 C26.8388953,29.6181696 26.8280556,28.3707578 27.586,27.586 L35.172,20 L27.586,12.414 C26.8052361,11.6330003 26.8052361,10.3669997 27.586,9.586 Z"
          id="路径" fill-opacity="0.2" fill="#000000"></path>
    <path d="M10,19.992 C10,18.8874305 10.8954305,17.992 12,17.992 L38,17.992 C39.1045695,17.992 40,18.8874305 40,19.992 C40,21.0965695 39.1045695,21.992 38,21.992 L12,21.992 C10.8954305,21.992 10,21.0965695 10,19.992 Z"
          id="路径" fill="#646A73"></path>
    <path d="M10,19.992 C10,18.8874305 10.8954305,17.992 12,17.992 L38,17.992 C39.1045695,17.992 40,18.8874305 40,19.992 C40,21.0965695 39.1045695,21.992 38,21.992 L12,21.992 C10.8954305,21.992 10,21.0965695 10,19.992 Z"
          id="路径" fill-opacity="0.2" fill="#000000"></path>
</svg>

<svg width="40" height="40" xmlns="http://www.w3.org/2000/svg"><path d="M0 2a2 2 0 0 1 2-2h17.992a2 2 0 1 1 0 4H4v32h16a2 2 0 1 1 0 4H2a2 2 0 0 1-2-2V2z" fill="currentColor"/><path d="M0 2a2 2 0 0 1 2-2h17.992a2 2 0 1 1 0 4H4v32h16a2 2 0 1 1 0 4H2a2 2 0 0 1-2-2V2z" fill-opacity=".2" fill="currentColor"/><path d="M27.586 9.586a2 2 0 0 1 2.828 0l9 9a2 2 0 0 1 0 2.828l-9 9a2 2 0 0 1-2.828-2.828L35.172 20l-7.586-7.586a2 2 0 0 1 0-2.828z" fill="currentColor"/><path d="M27.586 9.586a2 2 0 0 1 2.828 0l9 9a2 2 0 0 1 0 2.828l-9 9a2 2 0 0 1-2.828-2.828L35.172 20l-7.586-7.586a2 2 0 0 1 0-2.828z" fill-opacity=".2" fill="currentColor"/><path d="M10 19.992a2 2 0 0 1 2-2h26a2 2 0 1 1 0 4H12a2 2 0 0 1-2-2z" fill="currentColor"/><path d="M10 19.992a2 2 0 0 1 2-2h26a2 2 0 1 1 0 4H12a2 2 0 0 1-2-2z" fill-opacity=".2" fill="currentColor"/></svg>
